X:66
T:Gan Ainm
S:Paidraig McDonagh, Galway (banjo)
D:Private tape
R:Reel
N:As played
Z:Bernie Stocks
M:4/4
K:G %=D modal
dcAG FDDD | D-EcE dEcE | d2AG FDDG | Ad(3edc defe | dcAG FDDD |
(3EEE cE dEcE | ddAG FDDG | AdDc ddde || ffdf ef(3gfe | afge afge |
fAdf efge | af(3gfe fdde | ffdf efge | afge fdfg | af(3gfe fdec | Adde d4 ||
<end>
<start>
